svgs/regular/id-card.svg

<svg xmlns="http://www.w3.org/2000/svg" viewBox="0 0 576 512"><!--! Font Awesome Free 7.2.0 by @fontawesome - https://fontawesome.com License - https://fontawesome.com/license/free (Icons: CC BY 4.0, Fonts: SIL OFL 1.1, Code: MIT License) Copyright 2026 Fonticons, Inc. --><path fill="currentColor" d="M48 416l0-256 480 0 0 256c0 8.8-7.2 16-16 16l-192 0c0-44.2-35.8-80-80-80l-64 0c-44.2 0-80 35.8-80 80l-32 0c-8.8 0-16-7.2-16-16zM64 32C28.7 32 0 60.7 0 96L0 416c0 35.3 28.7 64 64 64l448 0c35.3 0 64-28.7 64-64l0-320c0-35.3-28.7-64-64-64L64 32zM208 312a56 56 0 1 0 0-112 56 56 0 1 0 0 112zM376 208c-13.3 0-24 10.7-24 24s10.7 24 24 24l80 0c13.3 0 24-10.7 24-24s-10.7-24-24-24l-80 0zm0 96c-13.3 0-24 10.7-24 24s10.7 24 24 24l80 0c13.3 0 24-10.7 24-24s-10.7-24-24-24l-80 0z"/></svg>

<svg xmlns="http://www.w3.org/2000/svg" viewBox="0 0 576 512"><!--! Font Awesome Free 6.5.2 by @fontawesome - https://fontawesome.com License - https://fontawesome.com/license/free (Icons: CC BY 4.0, Fonts: SIL OFL 1.1, Code: MIT License) Copyright 2024 Fonticons, Inc. --><path d="M528 160V416c0 8.8-7.2 16-16 16H320c0-44.2-35.8-80-80-80H176c-44.2 0-80 35.8-80 80H64c-8.8 0-16-7.2-16-16V160H528zM64 32C28.7 32 0 60.7 0 96V416c0 35.3 28.7 64 64 64H512c35.3 0 64-28.7 64-64V96c0-35.3-28.7-64-64-64H64zM272 256a64 64 0 1 0 -128 0 64 64 0 1 0 128 0zm104-48c-13.3 0-24 10.7-24 24s10.7 24 24 24h80c13.3 0 24-10.7 24-24s-10.7-24-24-24H376zm0 96c-13.3 0-24 10.7-24 24s10.7 24 24 24h80c13.3 0 24-10.7 24-24s-10.7-24-24-24H376z"/></svg>
